flaticon/constructions/shovel-4.svg

<svg xmlns="http://www.w3.org/2000/svg" width="32" height="32" viewBox="0 0 24 24">
    <path d="M 13.199219 18.4375 L 13.199219 2.980469 C 13.390625 2.824219 13.5625 2.691406 13.761719 2.558594 C 14.28125 2.199219 14.800781 1.800781 14.800781 0.800781 C 14.800781 0.320312 14.480469 0 14 0 L 10 0 C 9.519531 0 9.199219 0.320312 9.199219 0.800781 C 9.199219 1.800781 9.761719 2.199219 10.28125 2.558594 C 10.441406 2.6875 10.628906 2.820312 10.800781 2.96875 L 10.800781 18.4375 C 9.878906 18.621094 9.199219 19.417969 9.199219 20.398438 L 9.199219 23.601562 C 9.199219 23.839844 9.359375 24 9.601562 24 L 14.398438 24 C 14.640625 24 14.800781 23.839844 14.800781 23.601562 L 14.800781 20.398438 C 14.800781 19.417969 14.121094 18.621094 13.199219 18.4375 Z M 11.601562 3.199219 L 12.398438 3.199219 L 12.398438 18.398438 L 11.601562 18.398438 Z M 10 0.800781 L 14 0.800781 C 14 1.398438 13.761719 1.558594 13.28125 1.921875 C 13.078125 2.039062 12.878906 2.199219 12.640625 2.398438 L 11.359375 2.398438 C 11.160156 2.199219 10.921875 2.039062 10.71875 1.878906 C 10.238281 1.558594 10 1.398438 10 0.800781 Z M 14 23.199219 L 10 23.199219 L 10 20.398438 C 10 19.71875 10.519531 19.199219 11.199219 19.199219 L 12.800781 19.199219 C 13.480469 19.199219 14 19.71875 14 20.398438 Z M 14 23.199219"/>
</svg>

<svg xmlns="http://www.w3.org/2000/svg" width="32" height="32" viewBox="0 0 24 24">
    <path d="M13.2 18.438V2.98c.19-.156.363-.289.562-.421C14.282 2.199 14.8 1.8 14.8.8 14.8.32 14.48 0 14 0h-4c-.48 0-.8.32-.8.8 0 1 .562 1.4 1.081 1.759.16.128.348.261.52.41v15.469a1.982 1.982 0 0 0-1.602 1.96v3.204c0 .238.16.398.403.398h4.796c.243 0 .403-.16.403-.398v-3.204c0-.98-.68-1.777-1.602-1.96zM11.601 3.198h.796v15.2h-.796zM10 .801h4c0 .597-.238.758-.719 1.12a4.723 4.723 0 0 0-.64.477h-1.282c-.199-.199-.437-.359-.64-.52-.48-.32-.719-.48-.719-1.077zm4 22.398h-4v-2.8c0-.68.52-1.2 1.2-1.2h1.6c.68 0 1.2.52 1.2 1.2zm0 0"/>
</svg>
